X:1
T:Cordero I
T:Cordero I
T:Misa - Cordero
%%score 1 2 3 4
L:1/8
Q:1/4=90
M:6/8
K:G
V:1 treble transpose=-14 nm="Tenor Saxophone" snm="T. Sax."
V:2 treble transpose=-9 nm="Altsaxophon" snm="A.sax."
V:3 treble nm="Voice" snm="Vo."
V:4 tab stafflines=6 strings=E2,A2,D3,G3,B3,E4 nm="Classical Guitar" snm="Guit."
V:1
[K:A] z6 | z6 | z6 | z6 | z6 | z6 | z6 | z6 | z4 AB | f4 AG |S F4 z2 | z6 | z ^DE F3 | A3 E3 | %14
 F4 z2!dacoda! | z4 EF | A2 G F3 | z4 AB | f3 A3!D.S.! |O z4 z2 | z GA B3- | B z z4 | z AB c3 |: %23
 z6 | z6 |1 z6 | z6 :|2 z3 B2 G ||[K:F#] A6 | F4 z2 | z6 |] %31
V:2
[K:E] z6 | z6 | z6 | z6 | z6 | z6 | z6 | z6 | z4 ef | c'4 ed | c4 z2 | z6 | z ^AB c3 | e3 B3 | %14
 c4 z2 | z4 Bc | e2 d c3 | z4 ef | c'3 e3 | z4 z2 | z de f3- | f z z4 | z ef g3 |: z6 | z6 |1 z6 | %26
 z6 :|2 z3 f2 d ||[K:C#] e6 | c4 z2 | z6 |] %31
V:3
 z6 | z4 z"^Cor-" D |"^de-" E"^ro"B"^de"A"^Dios" B2"^que" G |"^qui-" A3"^tas" E3 | %4
"^el" G2"^pe-" G"^ca-" F"^do"E"^del"D |"^mun-" E3"^do" E3 | %6
"^ten" A2"^pie-" B"^dad" c"^de"B"^no-"A |"^so-" B3"^tros" G3 | %8
"^ten" F2"^pie-" G"^dad" A"^de"G"^no-"F |"^so-" E3"^tros" E3 | z4 z"^Cor-" D | %11
"^de-" E"^ro"B"^de"A"^Dios" B2"^que" G |"^qui-" A3"^tas" E3 | %13
"^el" G2"^pe-" G"^ca-" F"^do"E"^del"D |"^mun-" E3"^do" E3 | %15
"^ten" A2"^pie-" B"^dad" c"^de"B"^no-"A |"^so-" B3"^tros" G3 | %17
"^ten" F2"^pie-" G"^dad" A"^de"G"^no-"F |"^so-" E3"^tros" E3 |"^da-" E3"^nos" F2"^la" G | %20
"^paz" A4 z2 |"^da-" F3"^nos" G2"^la" A |"^paz" B4 z2 |:"^da-" c3"^nos" F3 |"^da-" B3"^nos" E3 |1 %25
"^da-" A3"^nos" G2"^la" A |"^paz" B4 z2 :|2"^da-" A3"^nos" G2"^la" F ||[K:E]"^paz" E6 | z2 z4 | %30
 z6 |] %31
V:4
 [!6!E,,!5!B,,!4!E,!3!G,!2!B,!1!E]>[!6!E,,!5!B,,!4!E,!3!G,!2!B,!1!E][!6!E,,!5!B,,!4!E,!3!G,!2!B,!1!E]/[!6!E,,!5!B,,!4!E,!3!G,!2!B,!1!E]/ [!6!E,,!5!B,,!4!E,!3!G,!2!B,!1!E][!6!E,,!5!B,,!4!E,!3!G,!2!B,!1!E][!6!E,,!5!B,,!4!E,!3!G,!2!B,!1!E] | %1
 [!6!E,,!5!B,,!4!E,!3!G,!2!B,!1!E]>[!6!E,,!5!B,,!4!E,!3!G,!2!B,!1!E][!6!E,,!5!B,,!4!E,!3!G,!2!B,!1!E]/[!6!E,,!5!B,,!4!E,!3!G,!2!B,!1!E]/ [!6!E,,!5!B,,!4!E,!3!G,!2!B,!1!E][!6!E,,!5!B,,!4!E,!3!G,!2!B,!1!E][!6!E,,!5!B,,!4!E,!3!G,!2!B,!1!E] | %2
 [!6!E,,!5!B,,!4!E,!3!G,!2!B,!1!E]>[!6!E,,!5!B,,!4!E,!3!G,!2!B,!1!E][!6!E,,!5!B,,!4!E,!3!G,!2!B,!1!E]/[!6!E,,!5!B,,!4!E,!3!G,!2!B,!1!E]/ [!6!E,,!5!B,,!4!E,!3!G,!2!B,!1!E]>[!6!E,,!5!B,,!4!E,!3!G,!2!B,!1!E][!6!E,,!5!B,,!4!E,!3!G,!2!B,!1!E]/[!6!E,,!5!B,,!4!E,!3!G,!2!B,!1!E]/ | %3
 [!5!A,,!4!E,!3!A,!2!^C!1!E]>[!5!A,,!4!E,!3!A,!2!C!1!E][!5!A,,!4!E,!3!A,!2!C!1!E]/[!5!A,,!4!E,!3!A,!2!C!1!E]/ [!5!A,,!4!E,!3!A,!2!C!1!E]>[!5!A,,!4!E,!3!A,!2!C!1!E][!5!A,,!4!E,!3!A,!2!C!1!E]/[!5!A,,!4!E,!3!A,!2!C!1!E]/ | %4
 [!5!C,!4!E,!3!G,!2!C!1!E]>[!5!C,!4!E,!3!G,!2!C!1!E][!5!C,!4!E,!3!G,!2!C!1!E]/[!5!C,!4!E,!3!G,!2!C!1!E]/ [!4!D,!3!A,!2!D!1!F]>[!4!D,!3!A,!2!D!1!F][!4!D,!3!A,!2!D!1!F]/[!4!D,!3!A,!2!D!1!F]/ | %5
 [!6!E,,!5!B,,!4!E,!3!G,!2!B,!1!E]>[!6!E,,!5!B,,!4!E,!3!G,!2!B,!1!E][!6!E,,!5!B,,!4!E,!3!G,!2!B,!1!E]/[!6!E,,!5!B,,!4!E,!3!G,!2!B,!1!E]/ [!6!E,,!5!B,,!4!E,!3!G,!2!B,!1!E]>[!6!E,,!5!B,,!4!E,!3!G,!2!B,!1!E][!6!E,,!5!B,,!4!E,!3!G,!2!B,!1!E]/[!6!E,,!5!B,,!4!E,!3!G,!2!B,!1!E]/ | %6
 [!5!A,,!4!E,!3!A,!2!C!1!E]>[!5!A,,!4!E,!3!A,!2!C!1!E][!5!A,,!4!E,!3!A,!2!C!1!E]/[!5!A,,!4!E,!3!A,!2!C!1!E]/ [!4!D,!3!A,!2!D!1!F]>[!4!D,!3!A,!2!D!1!F][!4!D,!3!A,!2!D!1!F]/[!4!D,!3!A,!2!D!1!F]/ | %7
 [!6!G,,!5!B,,!4!D,!3!G,!2!D!1!G]>[!6!G,,!5!B,,!4!D,!3!G,!2!D!1!G][!6!G,,!5!B,,!4!D,!3!G,!2!D!1!G]/[!6!G,,!5!B,,!4!D,!3!G,!2!D!1!G]/ [!6!E,,!5!B,,!4!E,!3!G,!2!B,!1!E]>[!6!E,,!5!B,,!4!E,!3!G,!2!B,!1!E][!6!E,,!5!B,,!4!E,!3!G,!2!B,!1!E]/[!6!E,,!5!B,,!4!E,!3!G,!2!B,!1!E]/ | %8
 [!5!A,,!4!E,!3!A,!2!C!1!E][!5!A,,!4!E,!3!A,!2!C!1!E] x [!5!B,,!4!^D,!3!A,!2!B,!1!F][!5!B,,!4!D,!3!A,!2!B,!1!F] x | %9
 [!6!E,,!5!B,,!4!E,!3!G,!2!B,!1!E]>[!6!E,,!5!B,,!4!E,!3!G,!2!B,!1!E][!6!E,,!5!B,,!4!E,!3!G,!2!B,!1!E]/[!6!E,,!5!B,,!4!E,!3!G,!2!B,!1!E]/ [!6!E,,!5!B,,!4!E,!3!G,!2!B,!1!E]>[!6!E,,!5!B,,!4!E,!3!G,!2!B,!1!E][!6!E,,!5!B,,!4!E,!3!G,!2!B,!1!E]/[!6!E,,!5!B,,!4!E,!3!G,!2!B,!1!E]/ | %10
 [!6!E,,!5!B,,!4!E,!3!G,!2!B,!1!E]>[!6!E,,!5!B,,!4!E,!3!G,!2!B,!1!E][!6!E,,!5!B,,!4!E,!3!G,!2!B,!1!E]/[!6!E,,!5!B,,!4!E,!3!G,!2!B,!1!E]/ [!6!E,,!5!B,,!4!E,!3!G,!2!B,!1!E][!6!E,,!5!B,,!4!E,!3!G,!2!B,!1!E][!6!E,,!5!B,,!4!E,!3!G,!2!B,!1!E] | %11
 [!6!E,,!5!B,,!4!E,!3!G,!2!B,!1!E]>[!6!E,,!5!B,,!4!E,!3!G,!2!B,!1!E][!6!E,,!5!B,,!4!E,!3!G,!2!B,!1!E]/[!6!E,,!5!B,,!4!E,!3!G,!2!B,!1!E]/ [!6!E,,!5!B,,!4!E,!3!G,!2!B,!1!E]>[!6!E,,!5!B,,!4!E,!3!G,!2!B,!1!E][!6!E,,!5!B,,!4!E,!3!G,!2!B,!1!E]/[!6!E,,!5!B,,!4!E,!3!G,!2!B,!1!E]/ | %12
 [!5!A,,!4!E,!3!A,!2!^C!1!E]>[!5!A,,!4!E,!3!A,!2!C!1!E][!5!A,,!4!E,!3!A,!2!C!1!E]/[!5!A,,!4!E,!3!A,!2!C!1!E]/ [!5!A,,!4!E,!3!A,!2!C!1!E]>[!5!A,,!4!E,!3!A,!2!C!1!E][!5!A,,!4!E,!3!A,!2!C!1!E]/[!5!A,,!4!E,!3!A,!2!C!1!E]/ | %13
 [!5!C,!4!E,!3!G,!2!C!1!E]>[!5!C,!4!E,!3!G,!2!C!1!E][!5!C,!4!E,!3!G,!2!C!1!E]/[!5!C,!4!E,!3!G,!2!C!1!E]/ [!4!D,!3!A,!2!D!1!F]>[!4!D,!3!A,!2!D!1!F][!4!D,!3!A,!2!D!1!F]/[!4!D,!3!A,!2!D!1!F]/ | %14
 [!6!E,,!5!B,,!4!E,!3!G,!2!B,!1!E]>[!6!E,,!5!B,,!4!E,!3!G,!2!B,!1!E][!6!E,,!5!B,,!4!E,!3!G,!2!B,!1!E]/[!6!E,,!5!B,,!4!E,!3!G,!2!B,!1!E]/ [!6!E,,!5!B,,!4!E,!3!G,!2!B,!1!E]>[!6!E,,!5!B,,!4!E,!3!G,!2!B,!1!E][!6!E,,!5!B,,!4!E,!3!G,!2!B,!1!E]/[!6!E,,!5!B,,!4!E,!3!G,!2!B,!1!E]/ | %15
 [!5!A,,!4!E,!3!A,!2!C!1!E]>[!5!A,,!4!E,!3!A,!2!C!1!E][!5!A,,!4!E,!3!A,!2!C!1!E]/[!5!A,,!4!E,!3!A,!2!C!1!E]/ [!4!D,!3!A,!2!D!1!F]>[!4!D,!3!A,!2!D!1!F][!4!D,!3!A,!2!D!1!F]/[!4!D,!3!A,!2!D!1!F]/ | %16
 [!6!G,,!5!B,,!4!D,!3!G,!2!D!1!G]>[!6!G,,!5!B,,!4!D,!3!G,!2!D!1!G][!6!G,,!5!B,,!4!D,!3!G,!2!D!1!G]/[!6!G,,!5!B,,!4!D,!3!G,!2!D!1!G]/ [!6!E,,!5!B,,!4!E,!3!G,!2!B,!1!E]>[!6!E,,!5!B,,!4!E,!3!G,!2!B,!1!E][!6!E,,!5!B,,!4!E,!3!G,!2!B,!1!E]/[!6!E,,!5!B,,!4!E,!3!G,!2!B,!1!E]/ | %17
 [!5!A,,!4!E,!3!A,!2!C!1!E][!5!A,,!4!E,!3!A,!2!C!1!E] x [!5!B,,!4!^D,!3!A,!2!B,!1!F][!5!B,,!4!D,!3!A,!2!B,!1!F] x | %18
 [!6!E,,!5!B,,!4!E,!3!G,!2!B,!1!E]>[!6!E,,!5!B,,!4!E,!3!G,!2!B,!1!E][!6!E,,!5!B,,!4!E,!3!G,!2!B,!1!E]/[!6!E,,!5!B,,!4!E,!3!G,!2!B,!1!E]/ [!6!E,,!5!B,,!4!E,!3!G,!2!B,!1!E]>[!6!E,,!5!B,,!4!E,!3!G,!2!B,!1!E][!6!E,,!5!B,,!4!E,!3!G,!2!B,!1!E]/[!6!E,,!5!B,,!4!E,!3!G,!2!B,!1!E]/ | %19
 [!5!A,,!4!E,!3!A,!2!C!1!E]>[!5!A,,!4!E,!3!A,!2!C!1!E][!5!A,,!4!E,!3!A,!2!C!1!E]/[!5!A,,!4!E,!3!A,!2!C!1!E]/ [!5!A,,!4!E,!3!A,!2!C!1!E]>[!5!A,,!4!E,!3!A,!2!C!1!E][!5!A,,!4!E,!3!A,!2!C!1!E]/[!5!A,,!4!E,!3!A,!2!C!1!E]/ | %20
 [!4!D,!3!A,!2!D!1!F]>[!4!D,!3!A,!2!D!1!F][!4!D,!3!A,!2!D!1!F]/[!4!D,!3!A,!2!D!1!F]/ [!4!D,!3!A,!2!D!1!F]>[!4!D,!3!A,!2!D!1!F][!4!D,!3!A,!2!D!1!F]/[!4!D,!3!A,!2!D!1!F]/ | %21
 [!5!B,,!4!^D,!3!A,!2!B,!1!F]>[!5!B,,!4!D,!3!A,!2!B,!1!F][!5!B,,!4!D,!3!A,!2!B,!1!F]/[!5!B,,!4!D,!3!A,!2!B,!1!F]/ [!5!B,,!4!D,!3!A,!2!B,!1!F]>[!5!B,,!4!D,!3!A,!2!B,!1!F][!5!B,,!4!D,!3!A,!2!B,!1!F]/[!5!B,,!4!D,!3!A,!2!B,!1!F]/ | %22
 [!6!E,,!5!B,,!4!E,!3!G,!2!B,!1!E]>[!6!E,,!5!B,,!4!E,!3!G,!2!B,!1!E][!6!E,,!5!B,,!4!E,!3!G,!2!B,!1!E]/[!6!E,,!5!B,,!4!E,!3!G,!2!B,!1!E]/ [!6!E,,!5!B,,!4!D,!3!^G,!2!B,!1!E]>[!6!E,,!5!B,,!4!D,!3!G,!2!B,!1!E][!6!E,,!5!B,,!4!D,!3!G,!2!B,!1!E]/[!6!E,,!5!B,,!4!D,!3!G,!2!B,!1!E]/ |: %23
 [!5!A,,!4!E,!3!A,!2!C!1!E]>[!5!A,,!4!E,!3!A,!2!C!1!E][!5!A,,!4!E,!3!A,!2!C!1!E]/[!5!A,,!4!E,!3!A,!2!C!1!E]/ [!4!D,!3!A,!2!D!1!F]>[!4!D,!3!A,!2!D!1!F][!4!D,!3!A,!2!D!1!F]/[!4!D,!3!A,!2!D!1!F]/ | %24
 [!6!G,,!5!B,,!4!D,!3!G,!2!D!1!G]>[!6!G,,!5!B,,!4!D,!3!G,!2!D!1!G][!6!G,,!5!B,,!4!D,!3!G,!2!D!1!G]/[!6!G,,!5!B,,!4!D,!3!G,!2!D!1!G]/ [!6!E,,!5!B,,!4!E,!3!G,!2!B,!1!E]>[!6!E,,!5!B,,!4!E,!3!G,!2!B,!1!E][!6!E,,!5!B,,!4!E,!3!G,!2!B,!1!E]/[!6!E,,!5!B,,!4!E,!3!G,!2!B,!1!E]/ |1 %25
 [!5!A,,!4!E,!3!A,!2!C!1!E]>[!5!A,,!4!E,!3!A,!2!C!1!E][!5!A,,!4!E,!3!A,!2!C!1!E]/[!5!A,,!4!E,!3!A,!2!C!1!E]/ [!5!B,,!4!^D,!3!A,!2!B,!1!F]>[!5!B,,!4!D,!3!A,!2!B,!1!F][!5!B,,!4!D,!3!A,!2!B,!1!F]/[!5!B,,!4!D,!3!A,!2!B,!1!F]/ | %26
 [!6!E,,!5!B,,!4!E,!3!G,!2!B,!1!E]>[!6!E,,!5!B,,!4!E,!3!G,!2!B,!1!E][!6!E,,!5!B,,!4!E,!3!G,!2!B,!1!E]/[!6!E,,!5!B,,!4!E,!3!G,!2!B,!1!E]/ [!6!E,,!5!B,,!4!D,!3!^G,!2!B,!1!E]>[!6!E,,!5!B,,!4!D,!3!G,!2!B,!1!E][!6!E,,!5!B,,!4!D,!3!G,!2!B,!1!E]/[!6!E,,!5!B,,!4!D,!3!G,!2!B,!1!E]/ :|2 %27
 [!5!A,,!4!E,!3!A,!2!C!1!E]>[!5!A,,!4!E,!3!A,!2!C!1!E][!5!A,,!4!E,!3!A,!2!C!1!E]/[!5!A,,!4!E,!3!A,!2!C!1!E]/ [!5!B,,!4!^D,!3!A,!2!B,!1!F]>[!5!B,,!4!D,!3!A,!2!B,!1!F][!5!B,,!4!D,!3!A,!2!B,!1!F]/[!5!B,,!4!D,!3!A,!2!B,!1!F]/ || %28
[K:E] [!6!E,,!5!B,,!4!E,!3!G,!2!B,!1!E]>[!6!E,,!5!B,,!4!E,!3!G,!2!B,!1!E][!6!E,,!5!B,,!4!E,!3!G,!2!B,!1!E]/[!6!E,,!5!B,,!4!E,!3!G,!2!B,!1!E]/ [!6!E,,!5!B,,!4!E,!3!G,!2!B,!1!E]>[!6!E,,!5!B,,!4!E,!3!G,!2!B,!1!E][!6!E,,!5!B,,!4!E,!3!G,!2!B,!1!E]/[!6!E,,!5!B,,!4!E,!3!G,!2!B,!1!E]/ | %29
 [!6!E,,!5!B,,!4!E,!3!G,!2!B,!1!E]>[!6!E,,!5!B,,!4!E,!3!G,!2!B,!1!E][!6!E,,!5!B,,!4!E,!3!G,!2!B,!1!E]/[!6!E,,!5!B,,!4!E,!3!G,!2!B,!1!E]/ [!6!E,,!5!B,,!4!E,!3!G,!2!B,!1!E]>[!6!E,,!5!B,,!4!E,!3!G,!2!B,!1!E][!6!E,,!5!B,,!4!E,!3!G,!2!B,!1!E]/[!6!E,,!5!B,,!4!E,!3!G,!2!B,!1!E]/ | %30
 [!6!E,,!5!B,,!4!E,!3!G,!2!B,!1!E]6 |] %31

